!!!OTL: Abendreihen mit Kranzsingen
!!!ARE: Europa, Mitteleuropa, Deutschland
!!!SCT: A0288
!!!YEM: Copyright 1995, estate of Helmut Schaffrath.
**kern
*ICvox
*Ivox
*M4/2
*k[b-]
*F:
{2f
=1
2cc
2cc
2cc
2cc
=2
2dd
4cc
4b-
2a}
{2a
=3
2b-
2cc
2dd
2dd
=4
1cc
2r}
{2cc
=5
2cc
2cc
2cc
2a
=6
2cc
4b-
4a
2g}
{2cc
=7
2a
4g
4f
2g
2e
=8
1f}
{1a
=9
2cc
4b-
4a
2g
2g
=10
1f
2r}
==
!!!AGN: Romanze, Ballade, Lied
!! Nic. Hermann: Evangelia auf alle Sonn - und Festtage. 1560.
!!!ONB: ESAC (Essen Associative Code) Database: ALTDEU
!!!AMT: simple quadruple
!!!AIN: vox
!!!EED: Helmut Schaffrath
!!!EEV: 1.0
*-
